X: 1
T: Waiting for the Dawn
C: Hanneke Cassel
R: reel
Z: 2014 John Chambers <jc:trillian.mit.edu>
M: C|
L: 1/8
K: Em
"A"|:\
"Em"{A}B2BA BEB[c-G-] | "C"[cG][c2G2]A BAGB | "D"AG[A3D3] GGA- | "D"A[A2D2]G AGFA | {A}B2BA BEB[c-G-] |
"C"[cG][c2G2]A BAGB |1 "D"AD D/D/D ADFd- | "Bm"dABd AGFA :|2 "D"AD D/D/D ADFd- | dABd AGFD ||
"B"|:\
"C"EC C/C/C G2FG | "D"AD D/D/D AGFA | "G"BDDA B2AB- | "G"BDBD AGFD | "C"EC C/C/C G2FG |
"D"AD D/D/D AGFA |1 "Em"GFE3 DB,D | "Em"GFGA BAGF :|2 "Em"GF E6- | "Em"E3E EGBe |]
